packages/core/src/svgs/solo.svg

<svg width="24" height="24" viewBox="0 0 24 24" fill="none" xmlns="http://www.w3.org/2000/svg">
<g clip-path="url(#clip0_31_19000)">
<path d="M0 0H24V24H0V0Z" fill="url(#paint0_linear_31_19000)"/>
<path d="M15.0429 15.8574C14.9444 16.1059 13.7486 17.1431 12.5015 17.1431C10.6501 17.1431 9.42864 16.4702 9.42864 15.1288C9.42864 13.8945 10.9715 13.3031 12.8658 12.6174C15.1501 11.8459 16.2858 10.4831 16.2858 8.6145C16.2858 6.38592 14.4772 5.14307 11.7601 5.14307C10.3244 5.14307 8.48578 5.88878 8.0015 6.38592L9.1415 7.7145C9.60007 7.47878 10.4701 6.85735 11.7429 6.85735C13.6501 6.85735 14.5715 7.71021 14.5715 8.6145C14.5715 9.85307 13.8729 10.4231 11.9401 11.1302C9.57436 12.0002 7.71436 13.0459 7.71436 14.9916C7.71436 17.0402 9.19721 18.8574 12.5015 18.8574C13.8515 18.8574 15.4158 18.1116 16.2858 17.1945L15.0429 15.8574Z" fill="white"/>
</g>
<defs>
<linearGradient id="paint0_linear_31_19000" x1="4.46571" y1="4.16143" x2="29.2071" y2="32.58" gradientUnits="userSpaceOnUse">
<stop stop-color="#1A1E21"/>
<stop offset="1" stop-color="#06060A"/>
</linearGradient>
<clipPath id="clip0_31_19000">
<rect width="24" height="24" fill="white"/>
</clipPath>
</defs>
</svg>

<svg xmlns="http://www.w3.org/2000/svg" width="24" height="24" fill="none" viewBox="0 0 24 24"><g clip-path="url(#a)"><path fill="url(#b)" d="M0 0h24v24H0z"/><path fill="#fff" d="M15.043 15.857c-.099.249-1.294 1.286-2.541 1.286-1.852 0-3.073-.673-3.073-2.014 0-1.234 1.543-1.826 3.437-2.512 2.284-.771 3.42-2.134 3.42-4.003 0-2.228-1.809-3.47-4.526-3.47-1.436 0-3.274.745-3.758 1.242l1.14 1.329c.458-.236 1.328-.858 2.6-.858 1.908 0 2.83.853 2.83 1.757 0 1.24-.7 1.81-2.632 2.516-2.366.87-4.226 1.916-4.226 3.862 0 2.048 1.483 3.865 4.788 3.865 1.35 0 2.914-.745 3.784-1.662z"/></g><defs><linearGradient id="b" x1="4.466" x2="29.207" y1="4.161" y2="32.58" gradientUnits="userSpaceOnUse"><stop stop-color="#1A1E21"/><stop offset="1" stop-color="#06060A"/></linearGradient><clipPath id="a"><path fill="#fff" d="M0 0h24v24H0z"/></clipPath></defs></svg>
